X:1
T:Psalm 54
T:V 3
L:1/4
M:14/4
I:linebreak $
K:G
V:1 treble nm="Pipe Organ" snm="Org."
V:1
 B2 G G A2 B2 c c B3 z |$ B2 B A B d c B A2 B3 z |$[M:16/4] B2 B A G2 E2 F G E2 D3 z |$ %3
w: Dit was op my so ang- stig- nou.|U Naam, ge- dug bรณ ves- ting- wal- le,|laat nou my oog met wel- ge- val- le|
[M:14/4] D2 E2 F2 D G G F G3 z |] %4
w: die oor- deel- straf van God aan- skou.|

